X:1
T:Se fusti del mio amore
T:Giovanni Francesco Violanti
T:Source : Primo libro delle villanelle a 3 voci---Venetia---Figlio d'A.Gardano---1574. Editor : André Vierendeels (29/03/16).
T:Notes : Original clefs : C1, C2, C3 Editorial accidentals above the staff "Alla napolitana" Music by composers from Bari, collected by G.de Antiquis
T:Se fusti del mio amore
T:©
T:©
C:Giovanni Francesco Violanti
Z:©
%%score [ 1 2 3 ]
L:1/8
Q:1/4=96
M:4/4
K:F
V:1 treble nm="Soprano 1" snm="S 1"
V:2 treble nm="Soprano 2" snm="S 2"
V:3 treble-8 nm="Tenor" snm="T"
V:1
 A8 | F6 A2 | G4 F4 | G8 | A2 c2 c2 c2 | B2 B2 A4 | d4 c3 B | A8 |[M:2/4] G4 ::[M:4/4] A4 A2 c2 | %10
w: 1)Se|fu- sti|del mio'a-|mo-|1)re, se fu- sti|del mio'a- mor',|tu la ca-|gio-|ne,|1)ch'al tri poi|
w: 2)Se'l|mi- o|pen- sier|per|2)te, s'el mio pen-|sier per te,|po- st'ho'in o-|bli-|o,|2)ch'al- tri ver|
w: 3)Se|co'l tuo|sguar- d'o|don-|3)na, se co'l tuo|sguar- d'o don-|na mi le-|ga-|sti,|3)et poi che|
w: 4)Mi-|ser on-|d'e ve-|nu-|4)to, mi- ser on-|d'e ve- nu-|to a tur-|bar-|mi,|4)nel na- vi-|
 B3 A G4 | A2 c4 c2 | d4 c3 B | A2 G2 A4 | G4 z4 | c4 B2 B2 | A2 A2 G2 c2- | c2 B2 c4 | z2 B4 B2 | %19
w: sen- za col-|pa, sen- za|col- pa _|_ mi to-|1)glia,|puo'es- ser vi-|ta mia, mi- *|* * a,|1)vi- ta|
w: me ti strin-|ge, ch'al- tri|ver me ti|strin- ge vo-|2)glia,|puo'es- ser vi-|ta mia, mi- *|* * a,|2)vi- ta|
w: s'al- cun' al-|tro'et poi che|s'al- cun' al-|tro scior vo-|3)glia,|puo'es- ser vi-|ta mia, mi- *|* * a,|3)vi- ta|
w: gar _ _|di si pro-|fon- * *|* do Ma-|4)re,|co- me po-|tro gia ma- *|* * i,|4)gli'oc- chi|
 A4 d4 | c3 B A4 |[M:2/4] G4 :| %22
w: mia che|non ti do-|glia.|
w: mia che|non ti do-|glia.|
w: mia che|non ti do-|glia.|
w: a- sci-|ut- * ta-|re.|
V:2
 F8 | D6 F2 | E4 F4- | F2 ED E4 | F2 A2 A2 A2 | G2 G2 F4 | B3 A G2 G2 | ^F2 G4 F2 |[M:2/4] G4 :: %9
w: 1)Se|fu- sti|del mio'a-|mo- * * *|1)re, se fu- sti|del mio'a- mor',|tu _ _ la|ca- gio- *|ne,|
w: 2)Se'l|mi- o|pen- sier'|per _ _ _|2)te, s'el mio pen-|sier per te,|po- * * st'ho'in|o- bli- *|o,|
[M:4/4] F4 F2 A2 | G2 F4 E2 | F2 A4 A2 | B3 A G2 G2 | ^F2 G4 F2 | G2 E2 D2 D2 | E2 F2 G4 | %16
w: 1)ch'al tri poi|sen- za col-|pa, sen- za|col- * * pa|mi to- *|1)glia, puo'es- ser vi-|* ta mi-|
w: 2)ch'al- tri ver|me ti strin-|ge, ch'al- tri|ver _ me ti|strin- ge vo-|2)glio, puo'es- ser vi-|* ta mi-|
 D4 z2 G2 | F2 F2 E2 E2 | D2 G4 G2 | F4 B4 | A2 G4 ^F2 |[M:2/4] G4 :| %22
w: a, puo'es-|ser vi- ta mi-|1)a, vi- ta|mia che|non ti do-|glia.|
w: a, puo'es-|ser vi- ta mi-|2)a, vi- ta|mia che|non ti do-|glia.|
V:3
 F8 | B6 F2 | c4 d4 | c8 | F2 f2 f2 F2 | G2 G2 d4 | B4 c2 c2 | d8 |[M:2/4] G4 ::[M:4/4] d4 d2 A2 | %10
w: 3)Se|co'l tuo|sguar- d'o|don-|3)na, se co'l tuo|sguar- d'o don-|na mi le-|ga-|sti,|3)et poi che|
w: 4)Mi-|ser on-|d'e ve-|nu-|4)to, mi- ser on-|d'e ve- nu-|to a tur-|bar-|mi.|4)nel na- vi-|
 B2 B2 c4 | F2 f4 f2 | B4 c4 |"^b" d2 e2 d4 | G2 c2 B2 B2 | A2 A2 G2 g2 | f2 f2 e4 | d4 c4 | %18
w: s'al- cun' al-|tro'et poi che|s'al- cun'|sci- or vo-|3)glia, puo'es- ser vi-|ta mi- a, puo'es-|ser vi- ta|mi- a,|
w: gar, nel na-|vi- gar di|si pro-|fon- do Ma-|4)re, co- me po-|tro gia- mai, co-|me po- tro|gia- mai,|
 z2 G4 G2 | d4 B4 | c2 c2 d4 |[M:2/4] G4 :| %22
w: 3)vi- ta|mia che|non ti do-|glia.|
w: 4)gli'oc- chi|a- sci-|ut- ta- *|re.|

